src/icons/IconBag/IconBag_size_s.svg

<svg viewBox="0 0 16 16" fill="none" xmlns="http://www.w3.org/2000/svg">
  <path
    fill-rule="evenodd"
    clip-rule="evenodd"
    d="M4 3C4 1.89543 4.89543 1 6 1H10C11.1046 1 12 1.89543 12 3V4H14C14.5523 4 15 4.44772 15 5V6L8.30317 7.9C8.10412 7.94976 7.89588 7.94976 7.69683 7.9L1 6V5C1 4.44772 1.44772 4 2 4H4V3ZM6 4H10V3H6V4Z"
  />
  <path
    d="M1 7.02307V13C1 13.5523 1.44772 14 2 14H14C14.5523 14 15 13.5523 15 13V7.02307L8.66697 8.9C8.22906 9.00948 7.77094 9.00948 7.33303 8.9L1 7.02307Z"
  />
</svg>

<svg viewBox="0 0 16 16" xmlns="http://www.w3.org/2000/svg">
  <path
    fill-rule="evenodd"
    clip-rule="evenodd"
    d="M4 3a2 2 0 012-2h4a2 2 0 012 2v1h2a1 1 0 011 1v1L8.303 7.9a1.25 1.25 0 01-.606 0L1 6V5a1 1 0 011-1h2V3zm2 1h4V3H6v1z"
  />
  <path
    d="M1 7.023V13a1 1 0 001 1h12a1 1 0 001-1V7.023L8.667 8.9a2.75 2.75 0 01-1.334 0L1 7.023z"
  />
</svg>
